X: 1059
T: O'Reilly's Favorite
R:double jig
N:"collected by O'Reilly"
B:O'Neill's 1059
Z:Transcribed by henrik.norbeck@mailbox.swipnet.se
M:6/8
L:1/8
K:D
A|FDD ADD|def gfe|edd fdd|eEE E2A|
FDD ADD|def {a}g2f|eag fge|fdd d2:|
e|faa fba|faf edd|faa fba|fdd e2g|
faa fba|faf edd|efg fge|fdd d2:|


